static/assets/img/icons/theme/media/forward.svg

<svg height="24" viewBox="0 0 24 24" width="24" xmlns="http://www.w3.org/2000/svg"><g fill="none" fill-rule="evenodd"><path d="m0 0h24v24h-24z" opacity="0"/><g fill="#000"><path d="m6.82866499 18.2771971 6.74070291-5.8795768c.2081017-.1815167.2296532-.4973648.0481365-.7054664-.0145916-.0167287-.0302811-.0324672-.0469642-.0471108l-6.74070297-5.91665331c-.20753521-.18216407-.5234489-.1615967-.70561297.04593851-.08007089.09122286-.12422426.20845782-.12422426.32983722v11.79623018c0 .2761424.22385763.5.5.5.12084305 0 .23759731-.0437648.32866499-.1231986z" opacity=".3"/><path d="m12.828665 18.2771971 6.7407029-5.8795768c.2081017-.1815167.2296532-.4973648.0481365-.7054664-.0145916-.0167287-.0302811-.0324672-.0469642-.0471108l-6.740703-5.91665331c-.2075352-.18216407-.5234489-.1615967-.7056129.04593851-.0800709.09122286-.1242243.20845782-.1242243.32983722v11.79623018c0 .2761424.2238576.5.5.5.1208431 0 .2375973-.0437648.328665-.1231986z"/></g></g></svg>

<svg width="24px" height="24px" viewBox="0 0 24 24" version="1.1" xmlns="http://www.w3.org/2000/svg" xmlns:xlink="http://www.w3.org/1999/xlink">
    <title>Icon For Forward</title>
    <g stroke="none" stroke-width="1" fill="none" fill-rule="evenodd">
        <rect opacity="0" x="0" y="0" width="24" height="24"></rect>
        <path d="M6.82866499,18.2771971 L13.5693679,12.3976203 C13.7774696,12.2161036 13.7990211,11.9002555 13.6175044,11.6921539 C13.6029128,11.6754252 13.5872233,11.6596867 13.5705402,11.6450431 L6.82983723,5.72838979 C6.62230202,5.54622572 6.30638833,5.56679309 6.12422426,5.7743283 C6.04415337,5.86555116 6,5.98278612 6,6.10416552 L6,17.9003957 C6,18.1765381 6.22385763,18.4003957 6.5,18.4003957 C6.62084305,18.4003957 6.73759731,18.3566309 6.82866499,18.2771971 Z" fill="#000000" opacity="0.3"></path>
        <path d="M12.828665,18.2771971 L19.5693679,12.3976203 C19.7774696,12.2161036 19.7990211,11.9002555 19.6175044,11.6921539 C19.6029128,11.6754252 19.5872233,11.6596867 19.5705402,11.6450431 L12.8298372,5.72838979 C12.622302,5.54622572 12.3063883,5.56679309 12.1242243,5.7743283 C12.0441534,5.86555116 12,5.98278612 12,6.10416552 L12,17.9003957 C12,18.1765381 12.2238576,18.4003957 12.5,18.4003957 C12.6208431,18.4003957 12.7375973,18.3566309 12.828665,18.2771971 Z" fill="#000000"></path>
    </g>
</svg>
